X:2
T:Yankee Doodle (New)
M:2/4
Q:1/4=100
L:1/8
K:D
%%MIDI channel 1
%%MIDI program 72
%%MIDI transpose 8
%%MIDI grace 1/8
%%MIDI ratio 3 1
(3(A/B/c/)|dd ef|dfe (3(A/B/c/)|dd ef|d2 c (3(A/B/c/)|dd ef|gfed|cA Bc|d2 d::
z|B>c BA|Bc d2|A>B AG|FG A2|B>c BA|Bc dB|Ad ce|Ld2 Ld:|
%%titleleft
P:2nd version of 2nd strain
|:z|a>a fd|ef gf|Le>f ed|cde z|a>a fd|ef gf|ea ^gb|La2 La:|
